X: 42
T: WATERLOO
%R: hornpipe, reel
B: Jean White "100 Popular Hornpipes, Reels, Jigs and Country Dances", Boston 1880 p.19
F: http://www.loc.gov/resource/sm1880.09124.0#seq-1
Z: 2014 John Chambers <jc:trillian.mit.edu>
M: C|
L: 1/8
K: A
% - - - - - - - - - - - - - - - - - - - - - - - - - - - - -
cd |\
eagf efed | cdcB A2Bc |\
defe dcBA | GABc B2cd |
eagf efed | cdcB A2Bc |\
defd cBAG | B2A2 A2 :|
|: ED |\
CEAc ecec | defd B2Bc |\
defe dcBA | GABA GFED |
CEAc ecec | fdge a2gf |\
eagf (3efe (3dcB | c2A2 A2 H:|
% - - - - - - - - - - - - - - - - - - - - - - - - - - - - -

%%sep 1 1 500
%%sep 1 1 500
